icon-themes/breeze_svg/cmd/lc_symbolshapes.cloud.svg

<svg viewBox="0 0 24 24" xmlns="http://www.w3.org/2000/svg"><path d="m12 6c-1.439392 0-2.6466059 1.0225542-2.9375 2.375-.4685654-.2328347-1.0037759-.375-1.5625-.375-1.9329966 0-3.5 1.5670034-3.5 3.5 0 1.208123.600244 2.277275 1.53125 2.90625-.9087562.515528-1.53125 1.474317-1.53125 2.59375 0 1.656854 1.3431458 3 3 3 .7723865 0 1.4682561-.301756 2-.78125.5317424.479493 1.227616.78125 2 .78125 1.439388 0 2.646607-1.022558 2.9375-2.375.468565.232835 1.003776.375 1.5625.375 1.932997 0 3.5-1.567003 3.5-3.5 0-.689757-.218016-1.333015-.5625-1.875.928457-.509996 1.5625-1.4909 1.5625-2.625 0-1.6568542-1.343146-3-3-3-.87594 0-1.670287.3700489-2.21875.96875-.425581-1.1390782-1.493736-1.96875-2.78125-1.96875z" fill="#4d4d4d"/></svg>

<svg xmlns="http://www.w3.org/2000/svg" viewBox="0 0 24 24">
 <path 
     style="fill:#4d4d4d" 
     d="M 12 6 C 10.560608 6 9.3533941 7.0225542 9.0625 8.375 C 8.5939346 8.1421653 8.0587241 8 7.5 8 C 5.5670034 8 4 9.5670034 4 11.5 C 4 12.708123 4.600244 13.777275 5.53125 14.40625 C 4.6224938 14.921778 4 15.880567 4 17 C 4 18.656854 5.3431458 20 7 20 C 7.7723865 20 8.4682561 19.698244 9 19.21875 C 9.5317424 19.698243 10.227616 20 11 20 C 12.439388 20 13.646607 18.977442 13.9375 17.625 C 14.406065 17.857835 14.941276 18 15.5 18 C 17.432997 18 19 16.432997 19 14.5 C 19 13.810243 18.781984 13.166985 18.4375 12.625 C 19.365957 12.115004 20 11.1341 20 10 C 20 8.3431458 18.656854 7 17 7 C 16.12406 7 15.329713 7.3700489 14.78125 7.96875 C 14.355669 6.8296718 13.287514 6 12 6 z "
     />
 </svg>
